X:2908
T:Jack upon the green
O:england
R:Slip jig
M:9/8
N:Written in 6/8 in mss 1 (Key D parts reversed) \& 3
L:1/8
K:G
D | G2G A2A B/2c/2dB | G2G A2A B2A |\
G2G A2A B/2c/2dB | g2d B2c d2 :|
|:e|\
g2g g2f e2e | a2a a2g f2e/2f/2 |\
g2g g2f e2f | g2d B2A G2 :|
